!!! OTL: Berkowitz239
!!! Chapter: 1
!!! Section: II
!!! Page: 55
!!! Mode: 
!!! Encoder: DJB
**kern
*staff1
*I"Piano
=1-
*clefG2
*k[b-e-a-d-]
*f:
*M12/8
8f/L
8g/
8a-/J
8b-/L
8a-/
8g/J
8f/L
8g/
8a-/J
4b-\
8cc\
=2
8a-/
[4f/
4f/]
8cc\
8a-/
[4f/
4.f/]
=3
8f/L
8g/
8a-/J
8b-/L
8a-/
8g/J
8a-\L
8b-\
8cc\J
4dd-\
8ee-\
=4
8cc\
[4a-/
4a-/]
8ee-\
8cc\
[4a-/
4.a-/]
=5
!!linebreak:original
4cc\
8cc\
4c/
8c/
4dn/
8d/
4.en/
=6
8f/L
8en/
8f/J
8g/L
8f/
8g/J
8a-/L
8g/
8a-/J
8b-\
8r
8b-\
=7
8cc\L
8b-\
8a-\J
8a-/L
8a-/
8b-/J
8a-/L
8g/
8f/J
8en/L
8f/
8g/J
=8
8a-/
[4f/
4f/]
8c/
8a-/
[4f/
4.f/]
==
*-
